X: 3910
T: Blackberry Blossom, The
R: reel
M: 4/4
K: Gmajor
ge|dBAc BGGA|B2BA (3Bcd ge|dBAd BGBc|eaag ageg|
dBAc BGGA|B2BA (3Bcd ge|dBAd BGBc|eaag agef||
g2gf gaba|~g3b agef|g2gf gabg|eaag agef|
g2gf gaba|~g3 ba2 ga|(3bag af gedg|eaag a2||

